cssgg/push-up.svg

<svg
  width="24"
  height="24"
  viewBox="0 0 24 24"
  fill="none"
  xmlns="http://www.w3.org/2000/svg"
>
  <path
    fill-rule="evenodd"
    clip-rule="evenodd"
    d="M11.0001 22.2877H13.0001V7.80237L16.2428 11.045L17.657 9.63079L12.0001 3.97394L6.34326 9.63079L7.75748 11.045L11.0001 7.80236V22.2877ZM18 3H6V1H18V3Z"
    fill="currentColor"
  />
</svg>

<svg viewBox="0 0 24 24" xmlns="http://www.w3.org/2000/svg"><path fill-rule="evenodd" d="M11 22.28h2V7.79l3.24 3.24 1.41-1.42 -5.66-5.66L6.33 9.6l1.41 1.41 3.24-3.25v14.48Zm6.99-19.29h-12v-2h12v2Z"/></svg>
